assets/svg/qr-invalid.svg

<?xml version="1.0" encoding="UTF-8"?>
<svg width="1000px" height="1000px" viewBox="0 0 1000 1000" version="1.1" xmlns="http://www.w3.org/2000/svg" xmlns:xlink="http://www.w3.org/1999/xlink">
    <!-- Generator: sketchtool 52.4 (67378) - http://www.bohemiancoding.com/sketch -->
    <title>qr-invalid</title>
    <desc>Created with sketchtool.</desc>
    <g id="新版图标" stroke="none" stroke-width="1" fill="none" fill-rule="evenodd">
        <g id="qr-invalid" fill="#323233" fill-rule="nonzero">
            <g id="圆角-二维码失效-线">
                <path d="M708.333333,861.111111 C685.321469,861.111111 666.666667,842.456309 666.666667,819.444444 C666.666667,796.43258 685.321469,777.777778 708.333333,777.777778 C731.345198,777.777778 750,796.43258 750,819.444444 C750,842.456309 731.345198,861.111111 708.333333,861.111111 Z M833.333333,666.666667 L888.888889,666.666667 L833.333333,722.222222 L833.333333,680.146705 L840.073352,682.938512 L833.333333,676.198493 L833.333333,666.666667 Z M694.444444,583.333333 L661.900753,583.333333 L606.531269,527.963849 C608.041595,527.840608 609.569016,527.777778 611.111111,527.777778 L750,527.777778 L750,666.666667 L833.333333,666.666667 L833.333333,527.777778 C864.015819,527.777778 888.888889,552.650847 888.888889,583.333333 L888.888889,722.222222 L800.789642,722.222222 L694.444444,615.877024 L694.444444,583.333333 Z M611.111111,888.888889 C580.428625,888.888889 555.555556,864.015819 555.555556,833.333333 L555.555556,634.122976 L611.111111,689.678531 L611.111111,888.888889 Z M189.678531,111.111111 L416.666667,111.111111 C447.349153,111.111111 472.222222,135.984181 472.222222,166.666667 L472.222222,393.654802 L416.666667,338.099247 L416.666667,166.666667 L245.234087,166.666667 L189.678531,111.111111 Z M393.654802,472.222222 L166.666667,472.222222 C135.984181,472.222222 111.111111,447.349153 111.111111,416.666667 L111.111111,189.678531 L166.666667,245.234087 L166.666667,416.666667 L338.099247,416.666667 L393.654802,472.222222 Z M583.333333,166.666667 L583.333333,416.666667 L833.333333,416.666667 L833.333333,166.666667 L583.333333,166.666667 Z M583.333333,111.111111 L833.333333,111.111111 C864.015819,111.111111 888.888889,135.984181 888.888889,166.666667 L888.888889,416.666667 C888.888889,447.349153 864.015819,472.222222 833.333333,472.222222 L583.333333,472.222222 C552.650847,472.222222 527.777778,447.349153 527.777778,416.666667 L527.777778,166.666667 C527.777778,135.984181 552.650847,111.111111 583.333333,111.111111 Z M166.666667,583.333333 L166.666667,833.333333 L416.666667,833.333333 L416.666667,583.333333 L166.666667,583.333333 Z M166.666667,527.777778 L416.666667,527.777778 C447.349153,527.777778 472.222222,552.650847 472.222222,583.333333 L472.222222,833.333333 C472.222222,864.015819 447.349153,888.888889 416.666667,888.888889 L166.666667,888.888889 C135.984181,888.888889 111.111111,864.015819 111.111111,833.333333 L111.111111,583.333333 C111.111111,552.650847 135.984181,527.777778 166.666667,527.777778 Z" id="Combined-Shape"></path>
            </g>
        </g>
    </g>
</svg>

<svg width="1000" height="1000" xmlns="http://www.w3.org/2000/svg"><path d="M708.333 861.111c-23.012 0-41.666-18.655-41.666-41.667 0-23.011 18.654-41.666 41.666-41.666 23.012 0 41.667 18.655 41.667 41.666 0 23.012-18.655 41.667-41.667 41.667zm125-194.444h55.556l-55.556 55.555v-42.075l6.74 2.792-6.74-6.74v-9.532zm-138.889-83.334h-32.543l-55.37-55.37a56.305 56.305 0 0 1 4.58-.185H750v138.889h83.333v-138.89c30.683 0 55.556 24.874 55.556 55.556v138.89h-88.1L694.445 615.876v-32.544zM611.111 888.89c-30.682 0-55.555-24.873-55.555-55.556v-199.21l55.555 55.556v199.21zM189.68 111.11h226.988c30.682 0 55.555 24.873 55.555 55.556v226.988l-55.555-55.556V166.667H245.234L189.68 111.11zm203.976 361.111H166.667c-30.683 0-55.556-24.873-55.556-55.555V189.679l55.556 55.555v171.433h171.432l55.556 55.555zm189.678-305.555v250h250v-250h-250zm0-55.556h250c30.683 0 55.556 24.873 55.556 55.556v250c0 30.682-24.873 55.555-55.556 55.555h-250c-30.682 0-55.555-24.873-55.555-55.555v-250c0-30.683 24.873-55.556 55.555-55.556zM166.667 583.333v250h250v-250h-250zm0-55.555h250c30.682 0 55.555 24.873 55.555 55.555v250c0 30.683-24.873 55.556-55.555 55.556h-250c-30.683 0-55.556-24.873-55.556-55.556v-250c0-30.682 24.873-55.555 55.556-55.555z" fill="#323233" fill-rule="nonzero"/></svg>
